images/label-leaf.svg

<svg xmlns="http://www.w3.org/2000/svg" width="148" height="148" viewBox="0 0 148 148">
    <g>
        <path fill="#4756f7" d="M 74 0 C 33.131 0 0 33.131 0 74 C 0 114.869 33.131 148 74 148 C 114.87 148 148 114.869 148 74 C 148 33.131 114.87 0 74 0 z "/>
        <g>
            <path fill="#3296f1" d="M 76.324219 0.0390625 L 2.1816406 74.181641 C 1.3586406 75.004641 0.6506875 75.89875 0.0546875 76.84375 C 0.3216875 83.90875 1.5784063 90.719578 3.6914062 97.142578 C 9.6904062 101.75358 18.322406 101.31041 23.816406 95.816406 L 108.81641 10.816406 C 109.27341 10.359406 109.69503 9.8817656 110.08203 9.3847656 C 100.04003 3.7657656 88.558219 0.4160625 76.324219 0.0390625 z"/>
            <path fill="#71d9ff" d="M 118.58008 14.935547 L 64.257812 69.257812 C 52.250813 81.265812 52.250813 100.73323 64.257812 112.74023 C 76.265812 124.74723 95.733234 124.74723 107.74023 112.74023 L 147.98047 72.501953 C 147.51247 48.986953 136.07808 28.163547 118.58008 14.935547 z"/>
        </g>
        <g>
            <g>
                <path fill="#9ef569" d="M 74 12 C 53.38 23.868 28 46.698 28 72 C 28 97.292 53.38 120.144 74 132 C 94.62 120.144 120 97.292 120 72 C 120 46.698 94.62 23.868 74 12 z"/>
                <path fill="#36cc29" d="M 74 12 L 74 132 C 94.62 120.144 120 97.292 120 72 C 120 46.698 94.62 23.868 74 12 z"/>
            </g>
            <g>
                <path fill="#6fdf47" d="M 67 46 L 67 69.001953 L 60 62 L 50 72 L 67 89 L 67 147.67188 C 69.304 147.88887 71.64 148 74 148 C 76.362 148 78.696 147.88888 81 147.67188 L 81 89 L 98 72 L 87.992188 62 L 81 68.992188 L 81 46 L 67 46 z"/>
                <path fill="#49b125" d="M 74 46 L 74 148 C 76.361 148 78.696 147.88888 81 147.67188 L 81 89 L 98 72 L 87.992188 62 L 81 68.992188 L 81 46 L 74 46 z"/>
            </g>
        </g>
    </g>
</svg>

<svg xmlns="http://www.w3.org/2000/svg" width="148" height="148"><path fill="#4756f7" d="M74 0C33.131 0 0 33.131 0 74s33.131 74 74 74c40.87 0 74-33.131 74-74S114.87 0 74 0z"/><path fill="#3296f1" d="M76.324.04L2.182 74.181a15.313 15.313 0 00-2.127 2.662A73.79 73.79 0 003.69 97.143c6 4.61 14.631 4.167 20.125-1.327l85-85c.457-.457.879-.934 1.266-1.431A73.595 73.595 0 0076.324.039z"/><path fill="#71d9ff" d="M118.58 14.936L64.258 69.258c-12.007 12.008-12.007 31.475 0 43.482 12.008 12.007 31.475 12.007 43.482 0l40.24-40.238c-.468-23.515-11.902-44.338-29.4-57.566z"/><g><path fill="#9ef569" d="M74 12C53.38 23.868 28 46.698 28 72c0 25.292 25.38 48.144 46 60 20.62-11.856 46-34.708 46-60 0-25.302-25.38-48.132-46-60z"/><path fill="#36cc29" d="M74 12v120c20.62-11.856 46-34.708 46-60 0-25.302-25.38-48.132-46-60z"/><g><path fill="#6fdf47" d="M67 46v23.002L60 62 50 72l17 17v58.672a74.657 74.657 0 0014 0V89l17-17-10.008-10L81 68.992V46H67z"/><path fill="#49b125" d="M74 46v102c2.361 0 4.696-.111 7-.328V89l17-17-10.008-10L81 68.992V46h-7z"/></g></g></svg>
